X:386
T: Qinjianjieyue haochuduo
N: C1888
O: China,Guangdong Wengyuan
S: II, 357]
R: Xiaodiao, Yaochuange]
M: 2/4
L: 1/16
K: A
a2abc4 | c2bca2a2 | a2abcec2 | a2b6 |
e2cba4 | abc2b2a2 | f2a2faef | a4f4 |
a2abc4 | c2bca2a2 | a2abcec2 | a2b6 |
e2cba4 | abc2b2a2 | f2a2faef | a6f2 |
eeaaf2f2 | e2a2f2f2 | e2cba4 |
abc2b2a2 | f2a2faef | a8

@@@ Tune index: 6941
